!!!OTL: 401. Taubchen und Wolf.
!!!ARE: Europa, Mitteleuropa, Deutschland, Kassel
!!!SCT: K2401
!!!TXL: @@DE
!!!YEM: Copyright 1995, estate of Helmut Schaffrath.
**kern	**text
*clefG2	*
*M6/8	*
*k[f#]	*
*e:	*
{8c	Jhr
=1	=1
8g	Täub-
8g	-chen,
8g	ihr
8a	Täub-
8a	-chen,
8a	kommt
=2	=2
8g	al-
8g	-le
8f#	ʒu
4e}	mir!
{8a	Wir
=3	=3
4g	dür-
8f#	-fen
4e	nicht.
8a	Wa-
=4	=4
4g	-rum
8f#	denn
4e}	nicht?
{8a	Der
=5	=5
4g	Wolf
8f#	iſt
4e	da.
8a	Wo
=6	=6
4g	ſitʒt
8f#	er
4e}	denn?
{8a	Jm
=7	=7
4.g	Lo-
4e}	-che.
{8a	Was
=8	=8
4g	frißt
8f#	er
4e	denn?
8a	Das
=9	=9
4g	grü-
8f#	-ne
4e}	Gras.
{8a	Was
=10	=10
4g	trinkt
8f#	er
4e	denn?
8a	Ein
=11	=11
4g	Gläs-
8f#	-chen
4e}	Wein.
{8c	Jhr
=12	=12
8g	Täub-
8g	-chen,
8g	ihr
8a	Täub-
8a	-chen,
8a	kommt
=13	=13
8g	al-
8g	-le
8f#	ʒu
4e}	mir!
==	==
!!!Ag: Kinder - Lied, Tanz -, Lauf - Spiel
!!!ONB: ESAC (Essen Associative Code) Database: KINDER
!!!AMT: compound duple
!!!AIN: vox
!!!EED: Helmut Schaffrath
!!!EEV: 1.0
!!Aus Kassel: Lewalter V. Nr. 58.
!!!GTL: Zweites Buch. Kinderspiel: 3. Lauf-, Sprung- und Haschenspiele.
!!@@COMMENT:"Bei dieſem Spiele ſtellt ein Kind die Mutter vor, und eins den Wolf, die andern Kinder ſind die Täubchen. Die Mutter ſingt und fragt ſingend, die Täubchen antworten fingend. Beim letʒten 
!!Rufe "Kommt all ʒu mir" eilen die Täubchen auf die Mutter ʒu. Dasjenige Kind, welches bei dieſem Haſcheſpiel vom Wolf gefangen wird, ſtellt im nächſten Spiel den Wolf vor."
!!@@END:
!!!URL-scan: https://archive.org/details/DeutschesKinderliedUndKinderspiel/page/573/mode/1up
!!!ENC: Anna Maria Matuszewska
!!!EEV: 2024/05/09
*-	*-
